X:1
T:Homeland (Sullivan), 76.76 D
T:Homeland (Sullivan), 76.76 D
T:Arthur Seymour Sullivan, 1867
T:Public Domain Courtesy of the Cyber Hymnal™
C:Arthur Seymour Sullivan, 1867
Z:Public Domain
Z:Courtesy of the Cyber Hymnal™
%%score ( 1 2 ) ( 3 4 )
L:1/8
Q:1/4=115
M:4/4
K:Eb
V:1 treble 
V:2 treble 
V:3 bass 
V:4 bass 
V:1
 [B,E]2 | [EG]2 [EG]2 [Ec]2 [Ec]2 | [DB]4 [DB]2 [FA]2 | [EG]2 [B,E]2 [B,E]2 [B,D]2 | %4
 [B,E]6 [B,E]2 | [EG]2 [EG]2 [Ec]2 [Ec]2 | [EB]4 [DB]2 [FA]2 | [EG]2 [E=A]2 [DG]2 [D^F]2 | %8
 [DG]6 [DG]2 | [EB]3 [EB] [DB]2 [^CB]2 | [D=A]4 [=A,D]2 [^FA]2 | [GB]3 [GB] [Ec]2 [Ed]2 | %12
 [DB]6 [DB]2 | [EB]2 [EB]2 [Ad]2 [Ac][AB] | e4 [_DB]2 [CA]2 | [B,G]2 [B,E]2 [CE]2 [DF]2 | E6 |] %17
V:2
 x2 | x8 | x8 | x8 | x8 | x8 | x8 | x8 | x8 | x8 | x8 | x8 | x8 | x8 | (G2 E2) x4 | x8 | E6 |] %17
V:3
 [E,G,]2 | [E,B,]2 [E,B,]2 [A,,A,]2 [A,,A,]2 | [B,,F,]4 [B,,F,]2 [D,B,]2 | %3
 [E,B,]2 [E,G,]2 [B,,F,]2 [B,,A,]2 | [E,G,]6 [E,G,]2 | [E,B,]2 [E,B,]2 [A,,A,]2 [A,,A,]2 | %6
 [B,,F,]4 [B,,F,]2 [D,B,]2 | [E,B,]2 [C,C]2 [D,B,]2 [D,=A,]2 | [G,B,]6 [G,B,]2 | %9
 [G,C]3 [E,G,] [E,B,]2 [E,G,]2 | [^F,=A,]4 [D,G,]2 [D,D]2 | [G,D]3 [G,D] [F,=A,]2 [F,A,]2 | %12
 (B,4 A,2) [A,,F,]2 | [G,,G,]2 [G,B,]2 [F,B,]2 [F,B,][F,B,] | [E,B,]4 [G,,E,]2 [A,,E,]2 | %15
 [B,,E,]2 [B,,G,]2 [B,,A,]2 [B,,A,]2 | [E,G,]6 |] %17
V:4
 x2 | x8 | x8 | x8 | x8 | x8 | x8 | x8 | x8 | x8 | x8 | x8 | B,,6 x2 | x8 | x8 | x8 | x6 |] %17

